img/wishlist.svg

<?xml version="1.0" encoding="UTF-8"?>
<svg width="24px" height="24px" viewBox="0 0 24 24" version="1.1" xmlns="http://www.w3.org/2000/svg" xmlns:xlink="http://www.w3.org/1999/xlink">
    <title>Iconly/Light-Outline/Star</title>
    <g id="Iconly/Light-Outline/Star" stroke="none" stroke-width="1" fill="none" fill-rule="evenodd">
        <path d="M11.7499161,4.5 C11.6589161,4.5 11.4349161,4.525 11.3159161,4.763 L9.48991609,8.414 C9.20091609,8.991 8.64391609,9.392 7.99991609,9.484 L3.91191609,10.073 C3.64191609,10.112 3.54991609,10.312 3.52191609,10.396 C3.49691609,10.477 3.45691609,10.683 3.64291609,10.861 L6.59891609,13.701 C7.06991609,14.154 7.28391609,14.807 7.17191609,15.446 L6.47591609,19.456 C6.43291609,19.707 6.58991609,19.853 6.65991609,19.903 C6.73391609,19.959 6.93191609,20.07 7.17691609,19.942 L10.8319161,18.047 C11.4079161,17.75 12.0939161,17.75 12.6679161,18.047 L16.3219161,19.941 C16.5679161,20.068 16.7659161,19.957 16.8409161,19.903 C16.9109161,19.853 17.0679161,19.707 17.0249161,19.456 L16.3269161,15.446 C16.2149161,14.807 16.4289161,14.154 16.8999161,13.701 L19.8559161,10.861 C20.0429161,10.683 20.0029161,10.476 19.9769161,10.396 C19.9499161,10.312 19.8579161,10.112 19.5879161,10.073 L15.4999161,9.484 C14.8569161,9.392 14.2999161,8.991 14.0109161,8.413 L12.1829161,4.763 C12.0649161,4.525 11.8409161,4.5 11.7499161,4.5 M6.94691609,21.5 C6.53391609,21.5 6.12391609,21.37 5.77291609,21.114 C5.16691609,20.67 4.86991609,19.937 4.99891609,19.199 L5.69491609,15.189 C5.72091609,15.04 5.66991609,14.889 5.55991609,14.783 L2.60391609,11.943 C2.05991609,11.422 1.86491609,10.652 2.09491609,9.937 C2.32691609,9.214 2.94091609,8.697 3.69791609,8.589 L7.78591609,8 C7.94391609,7.978 8.07991609,7.881 8.14791609,7.743 L9.97491609,4.091 C10.3119161,3.418 10.9919161,3 11.7499161,3 L11.7499161,3 C12.5079161,3 13.1879161,3.418 13.5249161,4.091 L15.3529161,7.742 C15.4219161,7.881 15.5569161,7.978 15.7139161,8 L19.8019161,8.589 C20.5589161,8.697 21.1729161,9.214 21.4049161,9.937 C21.6349161,10.652 21.4389161,11.422 20.8949161,11.943 L17.9389161,14.783 C17.8289161,14.889 17.7789161,15.04 17.8049161,15.188 L18.5019161,19.199 C18.6299161,19.938 18.3329161,20.671 17.7259161,21.114 C17.1109161,21.565 16.3099161,21.626 15.6309161,21.272 L11.9779161,19.379 C11.8349161,19.305 11.6639161,19.305 11.5209161,19.379 L7.86791609,21.273 C7.57591609,21.425 7.26091609,21.5 6.94691609,21.5" id="Star" fill="#000000"></path>
    </g>
</svg>

<svg width="24" height="24" xmlns="http://www.w3.org/2000/svg">
    <path d="M11.75 4.5a.471.471 0 0 0-.434.263L9.49 8.414A1.979 1.979 0 0 1 8 9.484l-4.088.589a.467.467 0 0 0-.39.323.443.443 0 0 0 .12.465l2.957 2.84c.47.453.685 1.106.573 1.745l-.696 4.01a.446.446 0 0 0 .184.447.473.473 0 0 0 .517.039l3.655-1.895a2.003 2.003 0 0 1 1.836 0l3.654 1.894a.483.483 0 0 0 .519-.038.446.446 0 0 0 .184-.447l-.698-4.01a1.952 1.952 0 0 1 .573-1.745l2.956-2.84a.439.439 0 0 0 .12-.465.464.464 0 0 0-.388-.323L15.5 9.484a1.978 1.978 0 0 1-1.49-1.071l-1.827-3.65a.47.47 0 0 0-.433-.263m-4.803 17c-.413 0-.823-.13-1.174-.386a1.945 1.945 0 0 1-.774-1.915l.696-4.01a.455.455 0 0 0-.135-.406l-2.956-2.84a1.939 1.939 0 0 1-.51-2.006 1.96 1.96 0 0 1 1.604-1.348L7.786 8a.475.475 0 0 0 .362-.257l1.827-3.652A1.972 1.972 0 0 1 11.75 3c.758 0 1.438.418 1.775 1.091l1.828 3.651a.476.476 0 0 0 .36.258l4.089.589a1.96 1.96 0 0 1 1.603 1.348 1.94 1.94 0 0 1-.51 2.006l-2.956 2.84a.453.453 0 0 0-.134.405l.697 4.011a1.945 1.945 0 0 1-.776 1.915 1.973 1.973 0 0 1-2.095.158l-3.653-1.893a.498.498 0 0 0-.457 0l-3.653 1.894a1.99 1.99 0 0 1-.921.227" fill="#000" fill-rule="evenodd"/>
</svg>
